resources/haticons/SVG/post_add.svg

<!-- Generated by IcoMoon.io -->
<svg version="1.1" xmlns="http://www.w3.org/2000/svg" width="24" height="24" viewBox="0 0 24 24">
<title>post_add</title>
<path d="M6.984 15h8.016v2.016h-8.016v-2.016zM6.984 12h8.016v2.016h-8.016v-2.016zM6.984 9h8.016v2.016h-8.016v-2.016zM18.984 2.016v3h3v1.969h-3v3h-1.969v-3h-3v-1.969h3v-3h1.969zM17.016 19.219v-7.219h1.969v6.984q0 0.797-0.586 1.406t-1.383 0.609h-12q-0.797 0-1.406-0.609t-0.609-1.406v-12q0-0.797 0.609-1.383t1.406-0.586h6.984v1.969h-6.984v12.234h12z"></path>
</svg>

<svg xmlns="http://www.w3.org/2000/svg" width="24" height="24"><path d="M6.984 15H15v2.016H6.984V15zm0-3H15v2.016H6.984V12zm0-3H15v2.016H6.984V9zm12-6.984v3h3v1.969h-3v3h-1.969v-3h-3V5.016h3v-3h1.969zm-1.968 17.203V12h1.969v6.984q0 .797-.586 1.406t-1.383.609h-12q-.797 0-1.406-.609t-.609-1.406v-12q0-.797.609-1.383t1.406-.586H12v1.969H5.016v12.234h12z"/></svg>
